build/system/CloudDoneSolid.svg

<svg xmlns="http://www.w3.org/2000/svg" fill="none" viewBox="0 0 24 24" focusable="false"><path d="M0 0H24V24H0z"/><path fill="#74767B" fill-rule="evenodd" d="M5.33594 18.9755L17.5541 18.9757C20.0078 18.9755 21.9971 16.986 21.9971 14.5323C21.9971 12.2391 20.2597 10.3517 18.0294 10.1144C17.9742 10.1086 17.9193 10.0975 17.8665 10.0801C17.6158 9.99734 17.4341 9.78258 17.3696 9.52656C16.7021 6.87611 14.3028 4.91406 11.4451 4.91406C8.07111 4.91406 5.33594 7.64923 5.33594 11.0232C5.33594 11.2403 5.34726 11.4547 5.36934 11.6659C5.39923 11.9518 5.23815 12.2299 4.96521 12.32C4.93018 12.3316 4.89394 12.3396 4.85741 12.3449C3.24364 12.5768 2.00342 13.9651 2.00342 15.6431C2.00342 17.4835 3.49557 18.9755 5.33594 18.9755ZM10.5782 16.4463C10.8582 16.7263 11.3182 16.7163 11.5882 16.4263L15.255 12.4599C15.495 12.1899 15.475 11.7799 15.215 11.5399C14.955 11.2999 14.535 11.3099 14.295 11.5799L11.0582 15.0863L9.12313 13.1401C8.87313 12.8901 8.45312 12.8901 8.20312 13.1401C7.95312 13.3901 7.95312 13.8101 8.20312 14.0601L10.5782 16.4463Z"/></svg>

<svg xmlns="http://www.w3.org/2000/svg" fill="none" viewBox="0 0 24 24" focusable="false"><path fill="#74767B" fill-rule="evenodd" d="M5.33 18.97h12.22a4.443 4.443 0 0 0 .47-8.86l-.16-.03a.8.8 0 0 1-.5-.56 6.096 6.096 0 0 0-5.92-4.61 6.11 6.11 0 0 0-6.11 6.11c0 .22.01.43.03.64.03.29-.13.56-.4.66-.03.01-.07.01-.11.02A3.33 3.33 0 0 0 2 15.64c0 1.84 1.49 3.33 3.33 3.33m5.24-2.53c.28.28.74.27 1.01-.02l3.67-3.97c.24-.27.22-.68-.04-.92a.65.65 0 0 0-.92.04l-3.24 3.51-1.93-1.94a.66.66 0 0 0-.92 0c-.25.25-.25.67 0 .92z"/></svg>
